logos/flux.svg

<?xml version="1.0" encoding="UTF-8" standalone="no"?>
<svg width="256px" height="102px" viewBox="0 0 256 102" version="1.1" xmlns="http://www.w3.org/2000/svg" xmlns:xlink="http://www.w3.org/1999/xlink" preserveAspectRatio="xMidYMid">
    <g>
        <path d="M205.033306,0 C194.985421,0 185.626982,2.92069408 177.731799,7.93881888 L127.998545,44.4649493 L101.785025,25.2157135 C100.205407,27.7785934 98.6141521,30.3269281 97.0927149,32.9654436 C96.7261736,33.5996182 96.3858138,34.24252 96.0250906,34.8766946 L117.936114,50.9666936 L71.958455,84.729219 C65.6574357,88.6564471 58.4080635,90.7335144 50.9637845,90.7335144 C29.0382155,90.7335144 11.1969637,72.8951716 11.1969637,50.9666936 C11.1969637,29.0382155 29.0353064,11.1998727 50.9637845,11.1998727 C58.4080635,11.1998727 65.6603448,13.274031 71.958455,17.2041681 L76.5285849,20.5583118 C78.4165634,17.2943489 80.3743594,14.1060215 82.3496097,10.9409666 L78.2652924,7.94172793 C70.3730185,2.92069408 61.0116703,0.00290905785 50.9637845,0.00290905785 C22.8186498,0.00290905785 0,22.8215588 0,50.9666936 C0,79.1118283 22.8157407,101.930478 50.9637845,101.930478 C61.0116703,101.930478 70.3730185,99.009784 78.2652924,93.9916592 L127.998545,57.4684379 L154.313883,76.7933092 C155.925501,74.1518846 157.53421,71.5017329 159.125464,68.741037 C159.439643,68.1941342 159.72473,67.6501403 160.036,67.1032375 L138.063886,50.9666936 L184.038636,17.2041681 C190.339655,13.27694 197.591936,11.1998727 205.033306,11.1998727 C226.961785,11.1998727 244.800127,29.0382155 244.800127,50.9666936 C244.800127,72.8951716 226.961785,90.7335144 205.033306,90.7335144 C197.589027,90.7335144 190.339655,88.6593561 184.038636,84.729219 L179.535414,81.4216202 C177.627072,84.7175828 175.695458,87.9204554 173.755116,91.068056 L177.734708,93.9887501 C185.629891,99.009784 194.98833,101.927569 205.036215,101.927569 C233.18135,101.927569 256,79.1089192 256,50.9637845 C255.997091,22.8186498 233.18135,0 205.033306,0 L205.033306,0 Z" fill="#44B74A"></path>
    </g>
</svg>

<svg preserveAspectRatio="xMidYMid" viewBox="0 0 256 102" xmlns="http://www.w3.org/2000/svg">
  <path fill="#44B74A" d="M205.033 0a50.722 50.722 0 0 0-27.301 7.939l-49.733 36.526-26.214-19.25c-1.58 2.564-3.17 5.112-4.692 7.75-.367.635-.707 1.278-1.068 1.912l21.911 16.09-45.978 33.762a39.626 39.626 0 0 1-20.994 6.005c-21.926 0-39.767-17.839-39.767-39.767 0-21.929 17.838-39.767 39.767-39.767a39.593 39.593 0 0 1 20.994 6.004l4.57 3.354c1.889-3.264 3.846-6.452 5.822-9.617l-4.085-3A50.69 50.69 0 0 0 50.964.004C22.819.003 0 22.822 0 50.967s22.816 50.963 50.964 50.963a50.712 50.712 0 0 0 27.301-7.938L128 57.468l26.315 19.325c1.612-2.641 3.22-5.291 4.811-8.052.315-.547.6-1.09.911-1.638l-21.972-16.136 45.975-33.763a39.634 39.634 0 0 1 20.994-6.004c21.929 0 39.767 17.838 39.767 39.767 0 21.928-17.838 39.767-39.767 39.767a39.6 39.6 0 0 1-20.994-6.005l-4.504-3.307a406.479 406.479 0 0 1-5.78 9.646l3.98 2.92a50.697 50.697 0 0 0 27.301 7.94c28.145 0 50.964-22.82 50.964-50.964C255.997 22.819 233.181 0 205.033 0Z"/>
</svg>
